X:402
T: JETZT REISEN WIR BRUEDER WOL ALLE ZUGLEICH
N: E1595
O: Europa, Mitteleuropa, Deutschland
R: Staende -, Handwerker -, Gesellen - Lied; Wanderschaft
M: 3/8
L: 1/16
K: C
G,2 | G,2C2C2 | C4E2 | E2D2D2 | E4
DE | F4E2 | D4C2 | E2D2z2 | z4
G,2 | G,2C2C2 | C4E2 | E2D2D2 | E4
DE | F4E2 | D4C2 | E2D2z2 | z4
E2 | F4E2 | D4E2 | F2F2E2 | D4
E2 | C4B,2 | C4E2 | E4D2 | E4
G2 | F2E2D2 | E4C2 | D2C2z2 | z4

